src/assets/duotone/Radar1.svg

<svg width="24" height="24" viewBox="0 0 24 24"  xmlns="http://www.w3.org/2000/svg">
<path opacity="0.4" d="M12 22C17.5228 22 22 17.5228 22 12C22 6.47715 17.5228 2 12 2C6.47715 2 2 6.47715 2 12C2 17.5228 6.47715 22 12 22Z" />
<path d="M12 19.75C7.73 19.75 4.25 16.27 4.25 12C4.25 10.64 4.61 9.31 5.28 8.14C5.49 7.78 5.94999 7.66 6.29999 7.86L12.37 11.35C12.73 11.56 12.85 12.01 12.65 12.37C12.44 12.73 11.99 12.85 11.63 12.65L6.25 9.56C5.93 10.33 5.76001 11.16 5.76001 12C5.76001 15.45 8.56001 18.25 12.01 18.25C15.46 18.25 18.26 15.45 18.26 12C18.26 8.55 15.46 5.75 12.01 5.75C10.65 5.75 9.35001 6.18 8.26001 7C7.93001 7.25 7.45999 7.18001 7.20999 6.85001C6.95999 6.52001 7.02999 6.05 7.35999 5.8C8.70999 4.79 10.32 4.25 12.01 4.25C16.28 4.25 19.76 7.73 19.76 12C19.76 16.27 16.27 19.75 12 19.75Z" />
</svg>

<?xml version="1.0" encoding="UTF-8"?>
<svg width="24" height="24" viewBox="0 0 24 24" xmlns="http://www.w3.org/2000/svg">
 <path d="m12 22c5.5228 0 10-4.4772 10-10 0-5.5228-4.4772-10-10-10-5.5228 0-10 4.4772-10 10 0 5.5228 4.4772 10 10 10z" opacity=".4"/>
 <path d="m12 19.75c-4.27 0-7.75-3.48-7.75-7.75 0-1.36 0.36-2.69 1.03-3.86 0.21-0.36 0.66999-0.48 1.02-0.28l6.07 3.49c0.36 0.21 0.48 0.66 0.28 1.02-0.21 0.36-0.66 0.48-1.02 0.28l-5.38-3.09c-0.32 0.77-0.48999 1.6-0.48999 2.44 0 3.45 2.8 6.25 6.25 6.25 3.45 0 6.25-2.8 6.25-6.25s-2.8-6.25-6.25-6.25c-1.36 0-2.66 0.43-3.75 1.25-0.33 0.25-0.80002 0.18001-1.05-0.14999s-0.18-0.80001 0.15-1.05c1.35-1.01 2.96-1.55 4.65-1.55 4.27 0 7.75 3.48 7.75 7.75s-3.49 7.75-7.76 7.75z"/>
</svg>
